packages/astro-components-stencil/src/icons/wifi.svg

<svg width="24" height="24" viewBox="0 0 24 24" fill="none" xmlns="http://www.w3.org/2000/svg">
<path fill-rule="evenodd" clip-rule="evenodd" d="M2.06002 10.06C2.57002 10.57 3.38002 10.62 3.93002 10.16C8.60002 6.32002 15.38 6.32002 20.06 10.15C20.62 10.61 21.44 10.57 21.95 10.06C22.54 9.47002 22.5 8.49002 21.85 7.96002C16.14 3.29002 7.88002 3.29002 2.16002 7.96002C1.51002 8.48002 1.46002 9.46002 2.06002 10.06ZM9.82002 17.82L11.29 19.29C11.68 19.68 12.31 19.68 12.7 19.29L14.17 17.82C14.64 17.35 14.54 16.54 13.94 16.23C12.72 15.6 11.26 15.6 10.03 16.23C9.46002 16.54 9.35002 17.35 9.82002 17.82ZM7.92002 14.22C7.35002 14.63 6.58002 14.58 6.09002 14.09C5.48002 13.48 5.52002 12.47 6.21002 11.97C9.66002 9.48002 14.35 9.48002 17.79 11.97C18.48 12.46 18.52 13.48 17.92 14.08L17.91 14.09C17.42 14.58 16.65 14.62 16.08 14.22C13.64 12.49 10.36 12.49 7.92002 14.22Z" fill="black"/>
</svg>

<svg xmlns="http://www.w3.org/2000/svg" viewBox="0 0 24 24"><g xmlns="http://www.w3.org/2000/svg" id="wifi" fill-rule="nonzero">
            <path d="M2.06 10.06c.51.51 1.32.56 1.87.1 4.67-3.84 11.45-3.84 16.13-.01.56.46 1.38.42 1.89-.09.59-.59.55-1.57-.1-2.1-5.71-4.67-13.97-4.67-19.69 0-.65.52-.7 1.5-.1 2.1zm7.76 7.76l1.47 1.47c.39.39 1.02.39 1.41 0l1.47-1.47c.47-.47.37-1.28-.23-1.59a4.28 4.28 0 00-3.91 0c-.57.31-.68 1.12-.21 1.59zm-3.73-3.73c.49.49 1.26.54 1.83.13a7.064 7.064 0 018.16 0c.57.4 1.34.36 1.83-.13l.01-.01c.6-.6.56-1.62-.13-2.11-3.44-2.49-8.13-2.49-11.58 0-.69.5-.73 1.51-.12 2.12z"/>
        </g></svg>
